X: 28070
T: Mr Keys
R: three-two
M: 3/2
K: Amixolydian
|:c2A2 B2AG A4|c2A4 c2B2d2|c2A2 B2AG A4|D2A4 c2B2d2:|
|:c2 e2 de fd e4|c2 A4 c2 B2 d2|c2 e2 de fd e4|B2 G4 c2 B2 d2:|
|:AB cA B2 AG A4|E2 A4 c2 B2 d2|AB cA B2 AG A4|D2 G4 c2 B2 d2:|
|:cd ec de fd ef ge|a2 A4 c2 B2 d2|cd ec de fd ef ge|B2 G4 c2 B2 d2:|
|:a2 fe ga b2 a4|c2 A4 c2 B2 d2|a2 gf ga b2 a4|g2 g4 G2 B2 d2:|
|:cA cA GEGE AF AF|d2 A4 c2 B2 d2|cA cA GE GE AF AF|D2 G4 c2 B2 d2:|
|:A,2 A2 GA BG A2 A,2|A,2 A2 A,B, CA, B,2 G,2|A,2 A2 GA BG D2 F2|GE GE GE GE A,2 G,2:|
|:A2 E2 A,2 A2 C2 A,2|A2 E2 A,B, CA, B,2 A,G,|A2 E2 A,2 A2 C2 B,A,|G2 E4 c2 Bc dB:|

